flaticon/social-media/google-plus.svg

<svg xmlns="http://www.w3.org/2000/svg" width="32" height="32" viewBox="0 0 24 24">
    <path d="M14.960938 10L7.199219 10 7.199219 13.601562 11.121094 13.601562C10.558594 15.078125 9.320312 16 7.679688 16 5.519531 16 3.601562 14.121094 3.601562 12 3.601562 9.878906 5.519531 8 7.679688 8 8.71875 8 9.601562 8.320312 10.238281 8.960938L10.519531 9.238281 13.199219 6.558594 12.878906 6.28125C11.640625 5.039062 9.839844 4.398438 7.679688 4.398438 3.359375 4.398438 0 7.71875 0 12 0 16.28125 3.359375 19.601562 7.679688 19.601562 11.640625 19.601562 14.480469 17.28125 15 13.519531 15.078125 13.039062 15.121094 12.519531 15.121094 12 15.121094 11.398438 15.078125 10.800781 15 10.320312zM14.238281 13.398438C13.71875 16.800781 11.28125 18.800781 7.679688 18.800781 3.839844 18.800781.800781 15.800781.800781 12 .800781 8.199219 3.839844 5.199219 7.679688 5.199219 9.480469 5.199219 10.921875 5.679688 12.039062 6.558594L10.480469 8.121094C9.761719 7.519531 8.800781 7.199219 7.679688 7.199219 5.039062 7.199219 2.800781 9.398438 2.800781 12 2.800781 14.601562 5.039062 16.800781 7.640625 16.800781 9.800781 16.800781 11.519531 15.398438 12 13.28125L12.121094 12.800781 8 12.800781 8 10.800781 14.28125 10.800781C14.320312 11.160156 14.359375 11.601562 14.359375 12 14.359375 12.480469 14.320312 12.960938 14.238281 13.398438zM21.601562 10L21.601562 7.601562 18.800781 7.601562 18.800781 10 16.398438 10 16.398438 12.800781 18.800781 12.800781 18.800781 15.199219 21.601562 15.199219 21.601562 12.800781 24 12.800781 24 10zM23.199219 12L20.800781 12 20.800781 14.398438 19.601562 14.398438 19.601562 12 17.199219 12 17.199219 10.800781 19.601562 10.800781 19.601562 8.398438 20.800781 8.398438 20.800781 10.800781 23.199219 10.800781zM23.199219 12"/>
</svg>

<svg xmlns="http://www.w3.org/2000/svg" width="32" height="32" viewBox="0 0 24 24">
    <path d="M14.96 10H7.2v3.602h3.921C10.56 15.078 9.321 16 7.68 16c-2.16 0-4.078-1.879-4.078-4S5.52 8 7.68 8c1.039 0 1.922.32 2.558.96l.282.278 2.68-2.68-.321-.277c-1.238-1.242-3.04-1.883-5.2-1.883C3.36 4.398 0 7.718 0 12c0 4.281 3.36 7.602 7.68 7.602 3.96 0 6.8-2.32 7.32-6.082.078-.48.121-1 .121-1.52 0-.602-.043-1.2-.121-1.68zm-.722 3.398c-.52 3.403-2.957 5.403-6.558 5.403C3.84 18.8.8 15.8.8 12c0-3.8 3.04-6.8 6.88-6.8 1.8 0 3.242.48 4.36 1.359L10.48 8.12C9.762 7.52 8.8 7.2 7.68 7.2 5.04 7.2 2.8 9.4 2.8 12c0 2.602 2.24 4.8 4.84 4.8 2.16 0 3.88-1.402 4.36-3.519l.121-.48H8v-2h6.281c.04.36.078.8.078 1.199 0 .48-.039.96-.12 1.398zm0 0M21.602 10V7.602H18.8V10h-2.403v2.8h2.403v2.4h2.8v-2.4H24V10zm1.597 2h-2.398v2.398h-1.2V12H17.2v-1.2h2.403V8.399H20.8v2.403h2.398zm0 0"/>
</svg>
